X:1
T:Title
%%score { ( 1 3 ) | ( 2 4 ) }
L:1/8
M:6/4
K:Db
V:1 treble nm="Grand Piano"
V:3 treble 
V:2 bass 
V:4 bass 
V:1
 z6 z4 [FA]2 | [FA]2 [DF]2 [_FB]2 [=FA]2 F2 [Fd]2 | c12 | G2 E2 A2 G2 E2 B2 | %4
[M:5/4] [FA]2- [FA]2- [FA]6 |[M:1/4] [FA]2 |[M:6/4] [FA]2 [DF]2 [_FB]2 [=FA]2 F2 [Fd]2 | c12 | %8
 [=Ge]2 [Gd]2 [Gc]2 [DGB]2 [EGc]2 [DGB]2 |[M:5/4] [CA]2- [CA]2- [CA]6 |[M:1/4] A>A | %11
[M:6/4] d2 c2 B2 A3 FED | F2 E2 D2 [CA]4 [EA][EG] | F2 _F2 =F2 B2 A2 F2 | [GB]2 [FA]2 F2 E4 DE | %15
 F2 _F2 =F2 G2 F2 G2 | A2 [Fd]2 [Ac]2 B4 GA | B2 =A2 B2 [AB]2 [_A=A]2 [AB]2 | %18
 [=GB]2 [Ge]2 [Bd]2 c4 BA | d2 c2 B2 A2 F2 DE | %20
[M:29/16] F-<FE-<ED-<D[CA]/-[CA]/-[CA]/-[CA]/-[CA]/-[CA]/-[CA]/-[CA]/-[CA]-<[CA][DB]3/2[DB] | %21
[M:6/4] .[DA]4 [A,DF]2 [B,CG]2 [A,CF]2 [CE]2[Q:1/4=118][Q:1/4=116][Q:1/4=114][Q:1/4=113][Q:1/4=111][Q:1/4=109][Q:1/4=107][Q:1/4=105][Q:1/4=103][Q:1/4=101][Q:1/4=99][Q:1/4=98][Q:1/4=96][Q:1/4=94][Q:1/4=92] | %22
[M:5/4][K:bass] [F,D]2- [F,D]2- [F,D]6 |] %23
V:2
 z6 z4 [D,D]2 | [D,D]2 [D,A,]2 [D,=G,]2 [D,A,]2 [D,D]2 [D,D]2 | .E6 z6 | %3
 [A,CE]2 [A,C]2[K:bass] [A,CE]2 [A,CE]2 [A,C]2 [A,C_F]2 |[M:5/4] z2 C2 B,2 A,4 |[M:1/4] [D,D]2 | %6
[M:6/4] [D,D]2 [D,A,]2 [D,=G,]2 [D,A,]2 [D,D]2 [D,D]2 | G6- G4 [A,CA]2 | %8
 [E,B,]2 [E,E]2 [E,E]2 E,2 E,2 E,2 |[M:5/4] A,2- A,2- A,6 |[M:1/4] A,>A, | %11
[M:6/4] D2 C2 B,2 A,3 F,E,D, | [D,A,D]2 [D,G,D]2 [D,F,]2 [A,,E,]4 [C,A,][C,A,] | %13
 [D,A,D]2 [D,=G,D]2 [D,A,D]2 [D,_G,D]2 [D,F,D]2 [D,A,D]2 | %14
 [D,D]2 [D,D]2 [F,A,D]2 [A,C]4 [D,F,][D,G,D] | %15
 [D,A,D]2 [D,=G,D]2 [D,A,D]2 [E,A,C]2 [=D,A,_C]2 [E,A,=C]2 | %16
 [F,A,D]2 [D,A,]2 [F,D]2 [G,DG]4 [G,B,][G,CG] | [G,DG]2 [G,CG]2 [G,DG]2 [F,D]2 [F,D]2 [F,D]2 | %18
 [E,E]2 [E,B,]2[K:treble] [=G,E]2 [A,EA]4 [A,DG][A,CG] | %19
 [DF]2 C2[K:bass] B,2 A,2 F,2 [D,F,][D,G,D] | %20
[M:29/16] [D,A,D]-<[D,A,D][D,G,D]-<[D,G,D][D,F,]-<[D,F,][A,,E,]/-[A,,E,]/-[A,,E,]/-[A,,E,]/-[A,,E,]/-[A,,E,]/-[A,,E,]/-[A,,E,]/-[A,,E,]-<[A,,E,][G,,G,]3/2[G,,G,] | %21
[M:6/4] .[A,,F,]4 A,,2 A,,2 A,,2 A,,2 |[M:5/4] D,2- D,2- D,6 |] %23
V:3
 x12 | x12 | z2 C2 D2 E4 G2 | x12 |[M:5/4] D2 z2 z2 z4 |[M:1/4] x2 |[M:6/4] x12 | z2 C2 D2 E4 c2 | %8
 x12 |[M:5/4] x10 |[M:1/4] x2 |[M:6/4] x12 | x12 | x12 | x12 | x12 | x12 | x12 | x12 | x12 | %20
[M:29/16] x29/2 |[M:6/4] x12 |[M:5/4][K:bass] x10 |] %23
V:4
 x12 | x12 | [A,G]6- [A,G]4 [A,CE]2 | x4[K:bass] x8 |[M:5/4] D,2- D,2- D,6 |[M:1/4] x2 | %6
[M:6/4] x12 | [A,-E]6 A,6 | x12 |[M:5/4] x10 |[M:1/4] x2 |[M:6/4] x12 | x12 | x12 | x12 | x12 | %16
 x12 | x12 | x4[K:treble] x8 | x4[K:bass] x8 |[M:29/16] x29/2 |[M:6/4] x12 |[M:5/4] x10 |] %23

